src/images/circuits/canadian.svg

<svg width="40" height="23" viewBox="0 0 40 23" fill="none" xmlns="http://www.w3.org/2000/svg">
<path d="M35.9209 20.8602L38.603 21.7989C38.797 21.8668 39 21.7228 39 21.5172C39 21.3987 38.9301 21.2916 38.8217 21.2434C37.9306 20.8474 36.2246 20.0493 35.3051 19.4746C34.3861 18.9002 31.7884 15.5133 30.3604 13.561C30.1767 13.3099 30.123 12.9877 30.2124 12.6897L30.3781 12.1376C30.4745 11.8162 30.4037 11.4677 30.1862 11.2121C29.2615 10.1254 27.5288 8.1574 25.9138 6.54238C24.2745 4.90309 21.8676 3.78907 20.5213 3.30786C20.2337 3.20503 19.9171 3.25677 19.6659 3.43067L18.651 4.13327C18.2989 4.37703 17.8307 4.36953 17.4866 4.11463L14.2849 1.74301C14.0446 1.56501 13.7372 1.50389 13.4471 1.57642L11.5615 2.04783C11.4822 2.06766 11.4007 2.07768 11.319 2.07768H9.13081C8.83888 2.07768 8.56153 1.95012 8.37155 1.72848L8.12826 1.44464C7.89288 1.17003 7.52755 1.04392 7.17289 1.11485L5.43782 1.46186C4.15486 1.82109 1.49658 2.66271 1.12708 3.15537C0.915488 3.4375 0.996731 3.80041 1.16263 4.11688C1.36248 4.49811 1.84863 4.56508 2.23362 4.37259L2.51291 4.23294C2.88364 4.04757 3.3303 4.11013 3.63585 4.39021L6.70367 7.20239C6.78298 7.27509 6.8735 7.33451 6.97175 7.37837L15.063 10.9906C15.3074 11.0996 15.4978 11.3021 15.5917 11.5526L15.7755 12.0426C15.8601 12.2683 16.0235 12.4559 16.2355 12.5707L19.6017 14.3941L26.2217 17.6271L30.4619 19.4444C30.5089 19.4645 30.5573 19.481 30.6068 19.4937L35.9209 20.8602Z" stroke="#FF0000"/>
</svg>

<svg width="40" height="23" fill="none" xmlns="http://www.w3.org/2000/svg"><path d="m35.92 20.86 2.683.939a.298.298 0 0 0 .219-.556c-.891-.396-2.597-1.194-3.517-1.768-.919-.575-3.517-3.962-4.945-5.914a.992.992 0 0 1-.148-.871l.166-.552a.989.989 0 0 0-.192-.926c-.924-1.087-2.657-3.055-4.272-4.67-1.64-1.639-4.046-2.753-5.393-3.234a.944.944 0 0 0-.855.123l-1.015.702a1 1 0 0 1-1.164-.018l-3.202-2.372a1 1 0 0 0-.838-.167l-1.885.472a1 1 0 0 1-.243.03H9.131a1 1 0 0 1-.76-.35l-.243-.283a1 1 0 0 0-.955-.33l-1.735.347c-1.283.36-3.941 1.2-4.31 1.693-.213.283-.131.645.035.962.2.381.686.448 1.07.256l.28-.14a1 1 0 0 1 1.123.157l3.068 2.812a1 1 0 0 0 .268.176l8.091 3.613a1 1 0 0 1 .529.562l.183.49a1 1 0 0 0 .46.528l3.367 1.823 6.62 3.233 4.24 1.817c.047.02.095.037.145.05l5.314 1.366Z" stroke="red"/></svg>
